X: 42506
T: What You Will
R: jig
M: 6/8
K: Gmajor
|:G2A BAG|Bed edB|gfe dBA|GED E2F:|
|:GFG AGA|Befg fe|dBA GFE|B,ED E2F:|

